rospo-icon-theme-classic-common/48x48/apps/com.github.davidmhewitt.clipped.svg

<svg height="48" width="48" xmlns="http://www.w3.org/2000/svg"><rect height="40" opacity=".2" rx="4" width="36" x="6" y="5"/><rect fill="#e0995e" height="40" rx="4" width="36" x="6" y="4"/><path d="m10 9h27v32h-27z" fill="#231f20" opacity=".2"/><path d="m10 8h27v32h-27z" fill="#fff"/><path d="m10 4c-2.216 0-4 1.784-4 4v1c0-2.216 1.784-4 4-4h28c2.216 0 4 1.784 4 4v-1c0-2.216-1.784-4-4-4z" fill="#fff" opacity=".2"/><path d="m28.187 2h-9.375-2.812v3 1 1c0 1.7 1.219 3 2.812 3h9.375c1.595 0 2.813-1.3 2.813-3v-1-1-3z" fill="#4f5d73"/><g fill="#e0e0d1"><path d="m14 16h19v2h-19z"/><path d="m14 20h19v2h-19z"/><path d="m14 24h19v2h-19z"/><path d="m14 28h19v2h-19z"/><path d="m14 32h19v2h-19z"/></g><path d="m16 3v5c0 1.662 1.338 3 3 3h9c1.662 0 3-1.338 3-3v-5z" opacity=".2"/><path d="m16 2v5c0 1.662 1.338 3 3 3h9c1.662 0 3-1.338 3-3v-5z" fill="#4f5d73"/><path d="m16 2v1h15v-1z" fill="#fff" opacity=".1"/></svg>

<svg xmlns="http://www.w3.org/2000/svg" width="48" height="48" version="1.1">
 <rect width="36" height="40" x="6" y="5" rx="4" ry="4" style="opacity:0.2"/>
 <rect style="fill:#e0995e" width="36" height="40" x="6" y="4" rx="4" ry="4"/>
 <rect width="27" height="32" x="10" y="9" style="opacity:0.2;fill:#231f20"/>
 <rect width="27" height="32" x="10" y="8" style="fill:#ffffff"/>
 <path style="opacity:0.2;fill:#ffffff" d="M 10 4 C 7.784 4 6 5.784 6 8 L 6 9 C 6 6.784 7.784 5 10 5 L 38 5 C 40.216 5 42 6.784 42 9 L 42 8 C 42 5.784 40.216 4 38 4 L 10 4 z"/>
 <path d="M 28.187,2 H 18.812 16 V 5 6 7 C 16,8.7 17.219,10 18.812,10 H 28.187 C 29.782,10 31,8.7 31,7 V 6 5 2 Z" style="fill:#4f5d73"/>
 <g>
  <rect style="fill:#e0e0d1" width="19" height="2" x="14" y="16"/>
  <rect style="fill:#e0e0d1" width="19" height="2" x="14" y="20"/>
  <rect style="fill:#e0e0d1" width="19" height="2" x="14" y="24"/>
  <rect style="fill:#e0e0d1" width="19" height="2" x="14" y="28"/>
  <rect style="fill:#e0e0d1" width="19" height="2" x="14" y="32"/>
 </g>
 <path d="M 16,3 V 8 C 16,9.662 17.338,11 19,11 H 28 C 29.662,11 31,9.662 31,8 V 3 Z" style="opacity:0.2"/>
 <path style="fill:#4f5d73" d="M 16 2 L 16 7 C 16 8.662 17.338 10 19 10 L 28 10 C 29.662 10 31 8.662 31 7 L 31 2 L 16 2 z"/>
 <path style="opacity:0.1;fill:#ffffff" d="M 16 2 L 16 3 L 31 3 L 31 2 L 16 2 z"/>
</svg>
